X:4
T:Piper's Chair, The
T:Cathaoir an Ph\'iob\'aire
R:jig
D:Bobby Gardiner: His Master's Choice.
Z:id:hn-jig-4
M:6/8
K:G
DGG GFD|c2c cAc|ded cAG|FAG FEF|DGG GFD|c2c cAc|ded cAF|1 AGF G3:|2 AGF GBd||
|:~g3 agf|d2g gfg|GFG =fef|A2B cBA|GBd g2f|d2e fdc|Bdd cAF|1 AGF GBd:|2 AGF G3||

